X: 30087
T: Oíche Nollag
R: jig
M: 6/8
K: Dmajor
|:g|f2 A d2 f|e^de B2 g|f2 A def|g2 b a2 g|
f2 A d2 A|e2 A B2 g|d2 c B2 G|EGE D2:|
f|a2 b a2 f|dcd A2 f|g2 f e2 d|cec A2 f|
a3 a2 f|d3 g2 f|e^de c2 e|a3 efg|
a2 b a2 f|d3- d2 f|g2 f e2 d|BdB A2 F|
A3 A2 F|D2 A g2 b|a2 A e2 A|d3- d2||

